X: 23290
T: Leckan Mor
R: jig
M: 6/8
K: Bminor
~B3 dcB|efb afd|ecc cde|gfe dcB|
FBB dcB|f2b afd|efg fdB|1 cdF B2F:|2 cdF B2f||
abf afg|fdB Bcd|cde efg|fdB c2f|
abf afg|fdB Bcd|cde A2e|edc B2f||
b2f afg|fdB Bcd|cde edc|def efa|
bfa efg|fdB BcA|cde def|fed edc||

